docs/static/img/logos/syslog.svg

<?xml version="1.0" encoding="UTF-8"?>
<svg width="64px" height="64px" viewBox="0 0 64 64" version="1.1" xmlns="http://www.w3.org/2000/svg" xmlns:xlink="http://www.w3.org/1999/xlink">
    <!-- Generator: Sketch 64 (93537) - https://sketch.com -->
    <title>Icon</title>
    <desc>Created with Sketch.</desc>
    <g id="Icon" stroke="none" stroke-width="1" fill="none" fill-rule="evenodd">
        <g id="news" fill="#000000" fill-rule="nonzero">
            <path d="M61.6970711,15.9955816 L50.2717322,15.9955816 L50.2717322,2.28512134 C50.2717322,1.02306276 49.2486695,0 47.9866109,0 L2.28512134,0 C1.02306276,0 0,1.02306276 0,2.28512134 L0,54.841841 C0,59.8899414 4.09225105,63.9821925 9.14035146,63.9821925 L54.841841,63.9821925 C59.8899414,63.9821925 63.9821925,59.8899414 63.9821925,54.841841 L63.9821925,18.280569 C63.9821925,17.0186444 62.9591297,15.9955816 61.6970711,15.9955816 Z M18.280569,11.4253389 L31.9910293,11.4253389 C33.2530879,11.4253389 34.2761506,12.4484017 34.2761506,13.7104603 C34.2761506,14.9725188 33.2530879,15.9955816 31.9910293,15.9955816 L18.280569,15.9955816 C17.0185105,15.9955816 15.9954477,14.9725188 15.9954477,13.7104603 C15.9954477,12.4484017 17.0186444,11.4253389 18.280569,11.4253389 Z M38.8462594,54.841841 L11.4253389,54.841841 C10.1632803,54.841841 9.14021757,53.8187782 9.14021757,52.5567197 C9.14021757,51.2946611 10.1632803,50.2715983 11.4253389,50.2715983 L38.8462594,50.2715983 C40.108318,50.2715983 41.1313808,51.2946611 41.1313808,52.5567197 C41.1313808,53.8187782 40.108318,54.841841 38.8462594,54.841841 Z M38.8462594,45.7014895 L11.4253389,45.7014895 C10.1632803,45.7014895 9.14021757,44.6784268 9.14021757,43.4163682 C9.14021757,42.1543096 10.1632803,41.1312469 11.4253389,41.1312469 L38.8462594,41.1312469 C40.108318,41.1312469 41.1313808,42.1543096 41.1313808,43.4163682 C41.1313808,44.6784268 40.108318,45.7014895 38.8462594,45.7014895 Z M38.8462594,36.561272 L11.4253389,36.561272 C10.1632803,36.561272 9.14021757,35.5382092 9.14021757,34.2761506 C9.14021757,33.0140921 10.1632803,31.9910293 11.4253389,31.9910293 L38.8462594,31.9910293 C40.108318,31.9910293 41.1313808,33.0140921 41.1313808,34.2761506 C41.1313808,35.5382092 40.108318,36.561272 38.8462594,36.561272 Z M38.8462594,27.4209205 L11.4253389,27.4209205 C10.1632803,27.4209205 9.14021757,26.3978577 9.14021757,25.1357992 C9.14021757,23.8737406 10.1632803,22.8506778 11.4253389,22.8506778 L38.8462594,22.8506778 C40.108318,22.8506778 41.1313808,23.8737406 41.1313808,25.1357992 C41.1313808,26.3978577 40.108318,27.4209205 38.8462594,27.4209205 Z M59.4119498,54.841841 C59.4119498,57.3658243 57.3658243,59.4119498 54.841841,59.4119498 C52.3178577,59.4119498 50.2717322,57.3658243 50.2717322,54.841841 L50.2717322,20.5656904 L59.4120837,20.5656904 L59.4120837,54.841841 L59.4119498,54.841841 Z" id="Shape"></path>
        </g>
    </g>
</svg>

<svg width="64" height="64" viewBox="0 0 64 64" xmlns="http://www.w3.org/2000/svg">
  <path d="M61.697 15.996H50.272V2.286A2.285 2.285 0 0047.987 0H2.285A2.285 2.285 0 000 2.285v52.557a9.14 9.14 0 009.14 9.14h45.702a9.14 9.14 0 009.14-9.14V18.28a2.285 2.285 0 00-2.285-2.285zm-43.416-4.57h13.71a2.285 2.285 0 110 4.57h-13.71a2.285 2.285 0 110-4.57zm20.565 43.416h-27.42a2.285 2.285 0 110-4.57h27.42a2.285 2.285 0 110 4.57zm0-9.14h-27.42a2.285 2.285 0 110-4.57h27.42a2.285 2.285 0 110 4.57zm0-9.14h-27.42a2.285 2.285 0 110-4.571h27.42a2.285 2.285 0 110 4.57zm0-9.141h-27.42a2.285 2.285 0 110-4.57h27.42a2.285 2.285 0 110 4.57zm20.566 27.42a4.57 4.57 0 01-9.14 0V20.567h9.14v34.276z" fill="#000000" fill-rule="nonzero"/>
</svg>
